src/symbolic/status/network-wireless-acquiring-symbolic.svg

<svg xmlns="http://www.w3.org/2000/svg" width="16" height="16"><path d="M5 8a2 2 0 0 1-2 2 2 2 0 0 1-2-2 2 2 0 0 1 2-2 2 2 0 0 1 2 2zM10 8a2 2 0 0 1-2 2 2 2 0 0 1-2-2 2 2 0 0 1 2-2 2 2 0 0 1 2 2zM15 8a2 2 0 0 1-2 2 2 2 0 0 1-2-2 2 2 0 0 1 2-2 2 2 0 0 1 2 2z" fill="#444"/><path d="M8 1C4.95 1 2.08 2.073 0 4l.727 1h14.546L16 4c-2.081-1.927-4.949-3-8-3zM5.092 11L8 15l2.908-4H5.092z" opacity=".3" fill="#444"/></svg>

<svg xmlns="http://www.w3.org/2000/svg" width="16" height="16" version="1.1">
 <path style="fill:#444444" d="M 5,8 A 2,2 0 0 1 3,10 2,2 0 0 1 1,8 2,2 0 0 1 3,6 2,2 0 0 1 5,8 Z"/>
 <path style="fill:#444444" d="M 10,8 A 2,2 0 0 1 8,10 2,2 0 0 1 6,8 2,2 0 0 1 8,6 2,2 0 0 1 10,8 Z"/>
 <path style="fill:#444444" d="M 15,8 A 2,2 0 0 1 13,10 2,2 0 0 1 11,8 2,2 0 0 1 13,6 2,2 0 0 1 15,8 Z"/>
 <path style="opacity:0.3;fill:#444444" d="M 8 1 C 4.9494 1 2.0806 2.0732 0 4 L 0.7265625 5 L 15.273438 5 L 16 4 C 13.919 2.0731 11.051 1 8 1 z M 5.0917969 11 L 8 15 L 10.908203 11 L 5.0917969 11 z"/>
</svg>
